X: 10242
T: Do You Want Any More?
R: jig
M: 6/8
K: Dmixolydian
A|DFA ~A2B|cAd ^cAG|Ad^c dfg|fed cAG|
FDF GAB|cAd cAG|Adc AGE|FDD D3|
DFA ~A2B|~c3 cAG|Ad^c dfg|~fed ^cAG|
FDF GAB|cAd cAG|Adc AGE|FDD D3|
|:fdg ~fed|A^ce d^cA|fdg fed|ABc dfg|
afa geg|fdg ed^c|AAA AGE|FDD D3:|

